src/assets/icons/deposit.svg

<svg width="16" height="16" viewBox="0 0 16 16" fill="none" xmlns="http://www.w3.org/2000/svg">
<g clip-path="url(#clip0_8874_15280)">
<path fill-rule="evenodd" clip-rule="evenodd" d="M7.77725 0.0298583C7.49039 0.104753 7.24782 0.350278 7.17161 0.642901C7.14935 0.728327 7.1461 1.24654 7.1461 4.70735V8.67389L6.47511 8.00479C5.74843 7.28018 5.67246 7.21711 5.47083 7.17125C5.14645 7.09748 4.87665 7.17337 4.64769 7.4028C4.38849 7.66255 4.32409 8.03814 4.48133 8.37302C4.53096 8.47871 4.63449 8.5865 6.00361 9.95781C7.03396 10.9898 7.50133 11.4466 7.56869 11.4874C7.82214 11.641 8.17961 11.641 8.43307 11.4874C8.50042 11.4466 8.9678 10.9898 9.99814 9.95781C11.3673 8.5865 11.4708 8.47871 11.5204 8.37302C11.6306 8.13847 11.6306 7.85816 11.5207 7.6277C11.4573 7.49495 11.2818 7.31093 11.1537 7.24291C10.9048 7.11075 10.57 7.11372 10.327 7.25026C10.2583 7.28888 10.0405 7.49416 9.54374 7.98844L8.85565 8.67313V4.70697C8.85565 0.390059 8.86153 0.657245 8.76222 0.461279C8.70442 0.347201 8.55504 0.190453 8.4357 0.118635C8.31448 0.0456716 8.14819 0.000488281 8.00088 0.000488281C7.93976 0.000488281 7.83912 0.0137031 7.77725 0.0298583ZM1.75478 12.1121C1.42989 12.1908 1.16167 12.4807 1.11137 12.8076C1.07096 13.0701 1.1492 13.6061 1.28166 13.9741C1.68369 15.0911 2.68845 15.8698 3.87232 15.982C4.13209 16.0066 11.8697 16.0066 12.1294 15.982C13.5068 15.8515 14.6276 14.8125 14.858 13.4526C14.8904 13.2618 14.9072 12.917 14.8897 12.8033C14.8367 12.4584 14.5429 12.1641 14.1884 12.1007C13.8243 12.0357 13.4417 12.2325 13.2777 12.5693C13.2121 12.7039 13.2055 12.7356 13.1806 13.0289C13.1613 13.2575 13.1123 13.4315 13.0219 13.5923C12.8438 13.9092 12.502 14.1704 12.1604 14.2505C12.0329 14.2804 11.8439 14.2818 8.00088 14.2818C4.18801 14.2818 3.96797 14.2802 3.84418 14.2511C3.40444 14.1479 3.01528 13.7872 2.87834 13.356C2.85278 13.2755 2.83102 13.1474 2.81979 13.0112C2.79774 12.7442 2.76585 12.6237 2.6835 12.4963C2.47602 12.1753 2.11346 12.0253 1.75478 12.1121Z" fill="currentColor"/>
</g>
<defs>
<clipPath id="clip0_8874_15280">
<rect width="16" height="16" fill="white" transform="translate(0 -0.000732422)"/>
</clipPath>
</defs>
</svg>

<svg xmlns="http://www.w3.org/2000/svg" width="16" height="16" fill="none">
  <g clip-path="url(#a)">
    <path fill="currentColor" fill-rule="evenodd" d="M7.777.03a.874.874 0 0 0-.605.613c-.023.085-.026.604-.026 4.064v3.967l-.67-.67c-.728-.724-.804-.787-1.005-.833a.827.827 0 0 0-.823.232.843.843 0 0 0-.167.97c.05.106.153.213 1.523 1.585 1.03 1.032 1.497 1.489 1.565 1.53a.87.87 0 0 0 .864 0c.067-.041.535-.498 1.565-1.53 1.37-1.372 1.473-1.48 1.522-1.585a.883.883 0 0 0 0-.745 1.047 1.047 0 0 0-.366-.385.898.898 0 0 0-.827.007c-.069.039-.287.244-.783.738l-.688.685V4.707c0-4.317.006-4.05-.094-4.246A1.027 1.027 0 0 0 8.436.12.89.89 0 0 0 8 0c-.061 0-.162.014-.224.03ZM1.755 12.112a.878.878 0 0 0-.644.696c-.04.262.038.798.17 1.166a3.051 3.051 0 0 0 2.591 2.008c.26.025 7.998.025 8.257 0a3.06 3.06 0 0 0 2.729-2.53c.032-.19.05-.535.032-.649a.874.874 0 0 0-.702-.702.863.863 0 0 0-.91.468c-.066.135-.072.167-.097.46-.02.229-.069.402-.16.563a1.417 1.417 0 0 1-.86.659c-.128.03-.317.03-4.16.03-3.813 0-4.033 0-4.157-.03a1.379 1.379 0 0 1-.966-.895 1.72 1.72 0 0 1-.058-.345c-.022-.267-.054-.387-.136-.515a.856.856 0 0 0-.93-.384Z" clip-rule="evenodd"/>
  </g>
  <defs>
    <clipPath id="a">
      <path fill="#fff" d="M0 0h16v16H0z"/>
    </clipPath>
  </defs>
</svg>
